images/favcon.svg

<?xml version="1.0" ?><svg viewBox="0 0 96 96" xmlns="http://www.w3.org/2000/svg"><title/><g>
<path d="M24.8452,25.3957a6.0129,6.0129,0,0,0-8.4487.7617L1.3974,44.1563a5.9844,5.9844,0,0,0,0,7.687L16.3965,69.8422a5.9983,5.9983,0,1,0,9.21-7.687L13.8068,48l11.8-14.1554A6,6,0,0,0,24.8452,25.3957Z" style="fill: #ffffff; fill-rule: nonzero;"/>
<path d="M55.1714,12.1192A6.0558,6.0558,0,0,0,48.1172,16.83L36.1179,76.8262A5.9847,5.9847,0,0,0,40.8286,83.88a5.7059,5.7059,0,0,0,1.1835.1172A5.9949,5.9949,0,0,0,47.8828,79.17L59.8821,19.1735A5.9848,5.9848,0,0,0,55.1714,12.1192Z" style="fill: #ffffff; fill-rule: nonzero;"/>
<path d="M94.6026,44.1563,79.6035,26.1574a5.9983,5.9983,0,1,0-9.21,7.687L82.1932,48l-11.8,14.1554a5.9983,5.9983,0,1,0,9.21,7.687L94.6026,51.8433A5.9844,5.9844,0,0,0,94.6026,44.1563Z" style="fill: #ffffff; fill-rule: nonzero;"/></g></svg>

<?xml version="1.0" encoding="utf-8"?>
<!-- Generator: Adobe Illustrator 24.2.1, SVG Export Plug-In . SVG Version: 6.00 Build 0)  -->
<svg version="1.1" id="Layer_1" xmlns="http://www.w3.org/2000/svg" xmlns:xlink="http://www.w3.org/1999/xlink" x="0px" y="0px"
	 viewBox="0 0 96 96" style="enable-background:new 0 0 96 96;" xml:space="preserve">
<style type="text/css">
	.st0{fill:#FFFFFF;}
</style>
<g>
	<path class="st0" d="M24.85,25.4c-2.55-2.11-6.32-1.77-8.45,0.76l-15,18c-1.86,2.22-1.86,5.46,0,7.69l15,18
		c2.11,2.55,5.89,2.92,8.44,0.81c2.55-2.11,2.92-5.89,0.81-8.44c-0.01-0.02-0.03-0.03-0.04-0.05L13.81,48l11.8-14.16
		C27.73,31.3,27.39,27.52,24.85,25.4z"/>
	<path class="st0" d="M55.17,12.12c-3.24-0.61-6.38,1.48-7.05,4.71l-12,60c-0.65,3.24,1.44,6.4,4.69,7.05c0.01,0,0.02,0,0.03,0.01
		c0.39,0.08,0.79,0.12,1.18,0.12c2.86,0,5.31-2.02,5.87-4.83l12-60c0.65-3.24-1.44-6.4-4.68-7.05
		C55.19,12.12,55.18,12.12,55.17,12.12z"/>
	<path class="st0" d="M94.6,44.16l-15-18c-2.11-2.55-5.89-2.92-8.44-0.81c-2.55,2.11-2.92,5.89-0.81,8.44
		c0.01,0.02,0.03,0.03,0.04,0.05L82.19,48l-11.8,14.16c-2.14,2.53-1.82,6.32,0.72,8.45s6.32,1.82,8.45-0.72
		c0.01-0.02,0.03-0.03,0.04-0.05l15-18C96.47,49.62,96.47,46.38,94.6,44.16z"/>
</g>
</svg>
